!!!OTL: Deutscher Rundgesang.
!!!OTL-incipit:FREUDE SCHWESTER EDLER SEELEN
!!!COM: J. J. Roessler
!!!ARE: Europa, Mitteleuropa, Deutschland
!!!SCT: F0431
!!!TXL: @@DE
!!!YEM: Copyright 1995, estate of Helmut Schaffrath.
**kern	**text
*ICvox	*
*M4/4	*
*met(c)	*
*k[]	*
*C:	*
!LO:TX:a:t=Solo.	!
!LO:TX:a:t=Nocht schleppend.	!
{8g	1._Freude,
8g	.
=1	=1
4.cc/	Schweſter
8g	.
4.ee/	ed-
8dd/	-ler
=2	=2
(8dd/L	Seelen,
8ccJ)	.
4cc/	.
4r}	.
{8cc/	die
8cc/	im
=3	=3
4b/	Kreis
4cc	der
4dd	Engel
4ee	.
=4	=4
(4ee/	wohnt,
4dd)	.
4r}	.
{8g	du
8g	nur
=5	=5
4.cc/	biſt
8g	es,
4.ee/	die
8dd/	die
=6	=6
(8dd/L	Mü-
8ccJ)	.
4cc/	-he,
4r}	.
{8cc/	die
8cc/	den
=7	=7
4b/	Schweiß
4cc/	des
4dd/	Le-
4ee	-bens
=8	=8
(4ee	lehnt!
4dd)	.
4r}	.
{8dd/	Komm'
8dd/	von
=9	=9
4.dd	dei-
8gg	-nem
8.ff#/L	Strahlen-
16eeJ	.
8.dd/L	.
16ccJ	.
=10	=10
4b/	-thro-
4dd/	-ne,
4r}	.
{8dd/	Göt-
8dd/	-tin
=11	=11
4.dd/	mit
8gg/	der
8.ff#/L	Blu-
16eeJ	.
8.dd/L	-men-
16ccJ	.
=12	=12
4b/	-kro-
4dd/	-ne;
4r}	.
{8g	dir
8g	er-
=13	=13
4.cc/	-tönt
8cc/	bei
4.dd/	Be-
8dd/	-cher-
=14	=14
4ee/	-klang
4r}	.
{4.gg	heu-
8ff	-te
=15	=15
4ee	un-
4dd	-ſer
4cc/	Feſg-
4b/	-ge-
=16	=16
2cc	-ſang.
4r}	.
!LO:TX:a:t=Alle.	!
{8dd	Bei
8dd	ge-
=17	=17
4.dd	-füll-
8gg	-ter
8.ff#/L	Be-
16eeJ	.
8.dd/L	-cher
16ccJ	.
=18	=18
4b/	Schalle
4dd/	.
4r}	.
{8dd/	ſteig'
8dd/	ein
=19	=19
4.dd	Lied
8gg	em-
8.ff#/L	-por
16eeJ	.
8.dd/L	und
16ccJ	.
=20	=20
4b/	hal-
4dd/	-le
4r}	.
{8g	feu-
8g	-rig
=21	=21
4.cc/	wie
8cc/	Tromme-
4cc/	.
4dd/	-ten-
=22	=22
4ee/	-ton,
4r}	.
{4.gg^	Göt-
8ff	-tin,
=23	=23
4ee	auf
4dd/	ʒu
4cc/	dei-
4b/	-nem
=24	=24
4cc/	Thron'.
4r	.
4r}	.
==	==
!!!AGN: Vaterlands -, Heimat - Lied, nationalistisch, Rundgesang
!!!ONB: ESAC (Essen Associative Code) Database: FINK
!!!AMT: simple quadruple
!!!AIN: vox
!!!EED: Helmut Schaffrath
!!!EEV: 1.0
!!Text: S. A. Mahlmann
!!!GTL: Vaterlands- und Heimathslieder.
!!!source: Musikalischer Hausschatz der Deutschen. Eine Sammlung von über 1000 Liedern und Gesängen mit Singstimmen und Klavierbegleitung. Leipzig, Litterarisches Verlags-Haus.
!!!page: 266
!!!ENC: Anna Maria Matuszewska
!!!EEV: 2025/03/14
*-	*-
